X:1
T:Roxburgh Castle
T:Roxburgh Castle
T:Collected in Roxburghshire
C:Collected in Roxburghshire
L:1/8
M:2/2
K:A
V:1 treble 
V:1
 E |"A" A2 Ac ecAc |"D" d2 df"A" ecAc |"D" d2 fd"A" c2 ec |"Bm" B2 B2"E" BdcB |"A" A2 Ac ecAc | %6
"D" d2 df"A" edcd |"A" eagf"E7" edcB |"A" A2"D" A2"A" A3 :: e |"A" aece fece | aece fece | %12
"D" d2 fd"A" c2 ec |"B" B2 B2"E7" BdcB |"A" A2 Ac ecAc |"D" d2 df"A" edcd |"A" eagf"E7" edcB | %17
"A" A2"D" A2"A" A3 :|[K:G]"^Roxburgh Castle   [G%5d" D |"G" G2 GB dBGB |"C" c2 ce"G" dBGB | %21
"C" c2 ec"G" B2 dB |"Am" A2 A2"D" AcBA |"G" G2 GB dBGB |"C" c2 ce"G" dcBc |"G" dgfe"D7" dcBA | %26
"G" G2"C" G2"G" G3 :: d |"G" gdBd edBd | gdBd edBd |"C" c2 ec"G" B2 dB |"A" A2 A2"D7" AcBA | %32
"G" G2 GB dBGB |"C" c2 ce"G" dcBc |"G" dgfe"D7" dcBA |"G" G2"C" G2"G" G3 :| %36

